X:1
T:Elle sen va de moy
T:Claudin de Sermisy
T:Source : Chansons musicales eslevées de plusieurs livres---Paris---P.Attaignant---1535/1536. Editor : André Vierendeels (01/05/18). Notes : Original clefs : C1, C3 (from m13: C2), C3, F3 Original note values have been halved Editorial accidentals above the staff Dotted bracket indicates black notes 
T:#
T:#
T:Elle sen va de moy
T:©
T:©
T:©
T:©
T:©
C:Claudin de Sermisy
Z:©
%%score [ 1 [ 2 3 ] 4 ]
L:1/8
Q:1/4=120
M:2/2
K:C
V:1 treble nm="Soprano" snm="S"
V:2 treble nm="Alto" snm="A"
V:3 treble-8 nm="Tenor" snm="T"
V:4 bass nm="Bass" snm="B"
V:1
 z4 B4- | B2 A2 AGAB | c4 z2 c2 | c2 c2 B2 A2- | AG G3 F/E/ F2 | G4 z2 B2 | B4 c4 | B4 z2 B2 | %8
w: El-|* le sen _ _ _|va de|moy tant re- gre-|* * té- * * *|e, cel-|l'en qui|gist de|
 c4 d4 | e3 d/c/ BA d2- | dc c4 B2 | c4 z2 A2 | A2 G2 F2 D2- | DEFG A3 B | c3 B cd e2- | e2 d4 c2 | %16
w: ver- tu|le _ _ _ _ _|_ _ _ pou-|voir, gra-|c'et beaul- té, bon-|* * * * sens _|_ _ _ _ et|_ grant sca-|
 d4 z2 B2- | B2 A2 AGAB | c4 z2 B2- | B2 A2 AGAB | c4 z2 c2 | c2 c2 B2 A2- | AG G4 F2 | G4 z2 B2- | %24
w: voir, se-|* lon le _ _ _|dict, se-|* lon le _ _ _|dict de|ceulx qui l'ont han-|* * té- *|e, se-|
 B2 A2 AGAB | c4 z2 B2- | B2 A2 AGAB | c4 z2 c2 | c2 c2 B2 A2- | AG G4 F2 | G8 |] %31
w: * lon le _ _ _|dict, se-|* lon le _ _ _|dict de|ceulx qui l'ont han-|* * té- *|e.|
V:2
 z4 G4- | G2 F2 F4 | G4 z2 G2 | G2 G2 G2 E2 | F2 D4 D2 | B,4 G,2 G2- | G2 G2 E2 F2 | %7
w: El-|* le sen|va de|moy tant re- gre-|té- * *|* e, cel-|* l'en qui gist|
 G3 F/E/ DCB,A, | G,2 C4 B,2 | C4 z2 D2 | E2 F2 G4 | E4 z2 F2 | F2 D2 D2 F2 | F4 F4 | E3 F GA B2- | %15
w: de _ _ ver- * * *|tu le pou-|voir, le|pou- * *|voir, gra-|c'et baul- té, bon|sens et|grant _ _ _ _|
 B2 G2 A4 | F4 z2 G2- | G2 F2 F3 E/F/ | G4 z2 G2- | G2 F2 F3 E/F/ | G4 z2 G2 | G2 G2 G2 E2 | %22
w: _ _ sca-|voir, se-|* lon le _ _|dict, se-|* lon le _ _|dict de|ceulx qui l'ont han-|
 F2 D4 D2 | B,4 z2 G2- | G2 F2 F3 E/F/ | G4 z2 G2- | G2 F2 F3 E/F/ | G4 z2 G2 | G2 G2 G2 E2 | %29
w: * * té-|e, se-|* lon le _ _|dict, se-|* lon le _ _|dict de|ceulx qui l'ont han-|
 F2 D4 D2 | D8 |] %31
w: * * té-|e.|
V:3
 z4 d4- | d2 d2 cBcd | e4 z2 e2 | e2 e2 d2 c2- | cBAG A4 | G4 z2 d2- | d2 d2 c4 | d6 d2 | %8
w: El-|* le sen- * * *|va de|moy tant re- gre-|* * * * té-|e, cel-|* l'en qui|gist de|
 e2 c2 f2 f2 | e2 g4 f2 | e3 d/c/ d4 | c4 z2 c2 | c2 B2 A2 A2 | d4 d4 | c3 d ef g2- | gfed e4 | %16
w: ver- tu le pou-|||voir, gra-|c'et beaul- té, bon|sens et|grant _ _ _ _|_ _ _ _ sca-|
 d4 z2 d2- | d2 d2 cBcd | e4 z2 d2- | d2 d2 cBcd | e4 z2 e2 | e2 e2 d2 c2- | cBAG A4 | G4 z2 d2- | %24
w: voir, se-|* lon le _ _ _|dict, se-|* lon le _ _ _|dict de|ceulx qui l'ont han-|* * * * té-|e, se-|
 d2 d2 cBcd | e4 z2 d2- | d2 d2 cBcd | e4 z2 e2 | e2 e2 d2 c2- | cBAG A4 | G8 |] %31
w: * lon le _ _ _|dict, se-|* lon le _ _ _|dict de|ceulx qui l'ont han-|* * * * té-|e.|
V:4
 z4 G,4- | G,2 D,2 F,4 | C,4 z2 C,2 | C,D,E,F, G,2 A,2 | F,2 G,2 D,4 | G,4 z2 G,2 | G,4 A,4 | %7
w: El-|* le sen|va de|moy _ _ _ _ tant|re- gre- té-|e, cel-|l'en qui|
 G,6 G,2 | E,2 F,2 D,4 | C,D,E,F, G,A, B,2 | C2 A,2 G,4 |"^#" C,4 z2 F,2 | F,2 G,2 D,4 | %13
w: gist de|ver- tu le|pou- * * * * * *||voir, gra-|c'et beaul- té,|
 z2 D,2 D,E,F,G, | A,B, C4 G,2 | B,4 A,4 | D,4 z2 G,2- | G,2 D,2 F,4 |"^#" C,4 z2 G,2- | %19
w: bon sens _ _ _|_ _ _ et|grant sca-|voir, se-|* lon le|dict, se-|
 G,2 D,2 F,4 | C,4 z2 C,2 | C,D,E,F, G,2 A,2 | F,2 G,2 D,4 | G,4 z2 G,2- | G,2 D,2 F,4 | %25
w: * lon le|dict de|ceulx _ _ _ _ qui|l'ont han- té-|e, se-|* lon le|
 C,4 z2 G,2- | G,2 D,2 F,4 | C,4 z2 C,2 | C,D,E,F, G,2 A,2 | F,2 G,2 D,4 | G,8 |] %31
w: dict, se-|* lon le|dict de|ceulx _ _ _ _ qui|l'ont han- té-|e.|

